icons/svg/sport/running.svg

<?xml version="1.0" encoding="UTF-8" standalone="no"?>
<!-- Created with Inkscape (http://www.inkscape.org/) -->

<svg
   xmlns:dc="http://purl.org/dc/elements/1.1/"
   xmlns:cc="http://creativecommons.org/ns#"
   xmlns:rdf="http://www.w3.org/1999/02/22-rdf-syntax-ns#"
   xmlns:svg="http://www.w3.org/2000/svg"
   xmlns="http://www.w3.org/2000/svg"
   xmlns:sodipodi="http://sodipodi.sourceforge.net/DTD/sodipodi-0.dtd"
   xmlns:inkscape="http://www.inkscape.org/namespaces/inkscape"
   version="1.0"
   width="580"
   height="580"
   id="svg2"
   sodipodi:version="0.32"
   inkscape:version="0.91 r"
   sodipodi:docname="running.svg"
   inkscape:output_extension="org.inkscape.output.svg.inkscape">
  <metadata
     id="metadata2975">
    <rdf:RDF>
      <cc:Work
         rdf:about="">
        <dc:format>image/svg+xml</dc:format>
        <dc:type
           rdf:resource="http://purl.org/dc/dcmitype/StillImage" />
        <cc:license
           rdf:resource="http://web.resource.org/cc/PublicDomain" />
        <dc:language>en</dc:language>
      </cc:Work>
    </rdf:RDF>
  </metadata>
  <sodipodi:namedview
     inkscape:window-height="739"
     inkscape:window-width="1332"
     inkscape:pageshadow="2"
     inkscape:pageopacity="0.0"
     guidetolerance="10.0"
     gridtolerance="10.0"
     objecttolerance="10.0"
     borderopacity="1.0"
     bordercolor="#666666"
     pagecolor="#ffffff"
     id="base"
     inkscape:zoom="0.46083856"
     inkscape:cx="67.507776"
     inkscape:cy="297.07151"
     inkscape:window-x="34"
     inkscape:window-y="1024"
     inkscape:current-layer="svg2"
     showgrid="false"
     inkscape:window-maximized="1" />
  <defs
     id="defs4">
    <inkscape:perspective
       sodipodi:type="inkscape:persp3d"
       inkscape:vp_x="0 : 290 : 1"
       inkscape:vp_y="0 : 1000 : 0"
       inkscape:vp_z="580 : 290 : 1"
       inkscape:persp3d-origin="290 : 193.33333 : 1"
       id="perspective2441" />
    <inkscape:perspective
       id="perspective3452"
       inkscape:persp3d-origin="30 : 20 : 1"
       inkscape:vp_z="60 : 30 : 1"
       inkscape:vp_y="0 : 1000 : 0"
       inkscape:vp_x="0 : 30 : 1"
       sodipodi:type="inkscape:persp3d" />
    <symbol
       viewBox="244.5 110 489 219.9"
       id="symbol-university">
      <path
         id="path4460"
         d="M79,43l57,119c0,0,21-96,104-96s124,106,124,106l43-133l82-17L0,17L79,43z" />
      <path
         id="path4462"
         d="M94,176l-21,39"
         stroke-width="20"
         stroke="#000000"
         fill="none" />
      <path
         id="path4464"
         d="M300,19c0,10.5-22.6,19-50.5,19S199,29.5,199,19s22.6-19,50.5-19S300,8.5,300,19z" />
      <path
         id="path4466"
         d="M112,216l-16-38L64,88c0,0-9-8-4-35s16-24,16-24"
         stroke-width="20"
         stroke="#000000"
         ill="none" />
    </symbol>
    <inkscape:perspective
       id="perspective4471"
       inkscape:persp3d-origin="372.04724 : 350.78739 : 1"
       inkscape:vp_z="744.09448 : 526.18109 : 1"
       inkscape:vp_y="0 : 1000 : 0"
       inkscape:vp_x="0 : 526.18109 : 1"
       sodipodi:type="inkscape:persp3d" />
    <inkscape:perspective
       id="perspective4668"
       inkscape:persp3d-origin="6 : 4 : 1"
       inkscape:vp_z="12 : 6 : 1"
       inkscape:vp_y="0 : 1000 : 0"
       inkscape:vp_x="0 : 6 : 1"
       sodipodi:type="inkscape:persp3d" />
  </defs>
  <g
     id="g1327">
    <path
       d="M 66.275,1.768 C 24.94,1.768 1.704,23.139 1.704,66.804 L 1.704,516.927 C 1.704,557.771 22.599,579.156 63.896,579.156 L 515.92,579.156 C 557.227,579.156 578.149,558.841 578.149,516.927 L 578.149,66.804 C 578.149,24.203 557.227,1.768 514.628,1.768 C 514.624,1.768 66.133,1.625 66.275,1.768 z "
       style="fill:#111;stroke:#eee;stroke-width:3.40799999"
       id="path1329" />
  </g>
  <g
     id="g7"
     inkscape:output_extension="org.inkscape.output.svg.inkscape"
     sodipodi:docname="waste_bin.svg"
     inkscape:version="0.46"
     sodipodi:version="0.32">
    <g
       id="g9">
      <g
         id="g11">
        <path
           style="fill:#ffffff"
           inkscape:connector-curvature="0"
           d="m 487.584,195.423 c 6.907,0 12.919,-2.493 18.037,-7.481 5.116,-4.988 7.675,-11.062 7.675,-18.219 0,-7.166 -2.559,-13.242 -7.675,-18.23 -5.118,-4.987 -11.13,-7.482 -18.037,-7.482 -7.158,0 -13.231,2.495 -18.219,7.482 -4.988,4.988 -7.482,11.064 -7.481,18.23 -0.001,7.157 2.493,13.23 7.481,18.219 4.988,4.988 11.061,7.481 18.219,7.481 z"
           id="path13" />
        <path
           style="fill:#ffffff"
           inkscape:connector-curvature="0"
           d="m 558.374,200.798 c -2.686,-2.56 -5.82,-3.84 -9.401,-3.84 -3.583,0 -6.397,1.022 -8.442,3.067 l -32.995,33.007 -39.902,-39.902 c -3.068,-3.076 -6.904,-4.614 -11.511,-4.614 l -62.534,0 c -3.842,0 -7.167,1.538 -9.978,4.614 l -42.969,49.492 c -3.068,2.552 -4.603,5.748 -4.603,9.589 0,3.582 1.278,6.652 3.836,9.209 2.555,2.556 5.625,3.834 9.209,3.834 3.832,0 7.156,-1.534 9.975,-4.603 l 39.904,-46.423 23.018,0.386 -87.861,102.052 -59.468,-0.387 c -4.863,0 -8.958,1.537 -12.283,4.609 -3.325,3.07 -4.987,7.033 -4.987,11.889 0,4.605 1.663,8.506 4.987,11.703 3.325,3.195 7.292,4.795 11.896,4.795 l 69.444,0 c 2.816,0 5.373,-0.254 7.67,-0.762 5.884,-1.021 9.979,-2.814 12.281,-5.375 l 34.142,-37.982 39.903,38.369 -16.111,71.738 c -0.515,1.539 -0.773,2.818 -0.773,3.842 0,4.604 1.663,8.568 4.988,11.895 3.326,3.326 7.29,4.988 11.896,4.988 8.695,0 14.068,-4.477 16.123,-13.43 l 19.564,-87.088 c 2.303,-9.211 1.28,-15.99 -3.067,-20.338 l -34.915,-34.917 37.982,-44.117 24.554,24.552 c 2.56,2.554 5.503,3.83 8.828,3.83 4.348,0 8.566,-1.917 12.657,-5.748 l 39.902,-39.904 c 2.045,-2.56 3.066,-5.374 3.068,-8.441 -10e-4,-3.832 -1.342,-7.029 -4.027,-9.589 z"
           id="path15" />
      </g>
      <g
         id="g17">
        <path
           style="fill:#ffffff"
           inkscape:connector-curvature="0"
           d="m 247.8,195.423 c 6.907,0 12.919,-2.493 18.037,-7.481 5.116,-4.988 7.675,-11.062 7.675,-18.219 0,-7.166 -2.559,-13.242 -7.675,-18.23 -5.118,-4.987 -11.13,-7.482 -18.037,-7.482 -7.158,0 -13.231,2.495 -18.219,7.482 -4.988,4.988 -7.482,11.064 -7.481,18.23 -0.001,7.157 2.493,13.23 7.481,18.219 4.988,4.988 11.061,7.481 18.219,7.481 z"
           id="path19" />
        <path
           style="fill:#ffffff"
           inkscape:connector-curvature="0"
           d="m 318.591,200.798 c -2.686,-2.56 -5.82,-3.84 -9.402,-3.84 -3.583,0 -6.397,1.022 -8.442,3.067 L 267.752,233.032 227.85,193.13 c -3.068,-3.076 -6.904,-4.614 -11.511,-4.614 l -62.534,0 c -3.842,0 -7.167,1.538 -9.978,4.614 l -42.969,49.492 c -3.068,2.552 -4.603,5.748 -4.603,9.589 0,3.582 1.278,6.652 3.836,9.209 2.555,2.556 5.625,3.834 9.209,3.834 3.832,0 7.156,-1.534 9.975,-4.603 l 39.904,-46.423 23.018,0.386 -87.862,102.052 -59.468,-0.387 c -4.863,0 -8.958,1.537 -12.283,4.609 -3.325,3.07 -4.987,7.033 -4.987,11.889 0,4.605 1.663,8.506 4.987,11.703 3.325,3.195 7.292,4.795 11.896,4.795 l 69.444,0 c 2.816,0 5.373,-0.254 7.67,-0.762 5.884,-1.021 9.979,-2.814 12.281,-5.375 l 34.142,-37.982 39.903,38.369 -16.111,71.738 c -0.515,1.539 -0.773,2.818 -0.773,3.842 0,4.604 1.663,8.568 4.988,11.895 3.326,3.326 7.29,4.988 11.896,4.988 8.695,0 14.068,-4.477 16.123,-13.43 l 19.564,-87.088 c 2.303,-9.211 1.28,-15.99 -3.067,-20.338 l -34.915,-34.917 37.982,-44.117 24.554,24.552 c 2.56,2.554 5.503,3.83 8.828,3.83 4.348,0 8.566,-1.917 12.657,-5.748 l 39.902,-39.904 c 2.045,-2.56 3.066,-5.374 3.068,-8.441 0,-3.832 -1.342,-7.029 -4.025,-9.589 z"
           id="path21" />
      </g>
    </g>
  </g>
</svg>

<svg width="580" height="580" viewBox="0 0 580 580" fill="none" xmlns="http://www.w3.org/2000/svg">
<g clip-path="url(#clip0)">
<path d="M66.2751 1.76815C24.9401 1.76815 1.7041 23.1391 1.7041 66.8041V516.927C1.7041 557.771 22.5991 579.156 63.8961 579.156H515.92C557.227 579.156 578.149 558.841 578.149 516.927V66.8041C578.149 24.2031 557.227 1.76815 514.628 1.76815C514.624 1.76815 66.1331 1.62515 66.2751 1.76815Z" fill="#111111" stroke="#EEEEEE" stroke-width="3.408"/>
<path d="M487.584 195.423C494.491 195.423 500.503 192.93 505.621 187.942C510.737 182.954 513.296 176.88 513.296 169.723C513.296 162.557 510.737 156.481 505.621 151.493C500.503 146.506 494.491 144.011 487.584 144.011C480.426 144.011 474.353 146.506 469.365 151.493C464.377 156.481 461.883 162.557 461.884 169.723C461.883 176.88 464.377 182.953 469.365 187.942C474.353 192.93 480.426 195.423 487.584 195.423V195.423Z" fill="white"/>
<path d="M558.374 200.798C555.688 198.238 552.554 196.958 548.973 196.958C545.39 196.958 542.576 197.98 540.531 200.025L507.536 233.032L467.634 193.13C464.566 190.054 460.73 188.516 456.123 188.516H393.589C389.747 188.516 386.422 190.054 383.611 193.13L340.642 242.622C337.574 245.174 336.039 248.37 336.039 252.211C336.039 255.793 337.317 258.863 339.875 261.42C342.43 263.976 345.5 265.254 349.084 265.254C352.916 265.254 356.24 263.72 359.059 260.651L398.963 214.228L421.981 214.614L334.12 316.666L274.652 316.279C269.789 316.279 265.694 317.816 262.369 320.888C259.044 323.958 257.382 327.921 257.382 332.777C257.382 337.382 259.045 341.283 262.369 344.48C265.694 347.675 269.661 349.275 274.265 349.275H343.709C346.525 349.275 349.082 349.021 351.379 348.513C357.263 347.492 361.358 345.699 363.66 343.138L397.802 305.156L437.705 343.525L421.594 415.263C421.079 416.802 420.821 418.081 420.821 419.105C420.821 423.709 422.484 427.673 425.809 431C429.135 434.326 433.099 435.988 437.705 435.988C446.4 435.988 451.773 431.511 453.828 422.558L473.392 335.47C475.695 326.259 474.672 319.48 470.325 315.132L435.41 280.215L473.392 236.098L497.946 260.65C500.506 263.204 503.449 264.48 506.774 264.48C511.122 264.48 515.34 262.563 519.431 258.732L559.333 218.828C561.378 216.268 562.399 213.454 562.401 210.387C562.4 206.555 561.059 203.358 558.374 200.798V200.798Z" fill="white"/>
<path d="M247.8 195.423C254.707 195.423 260.719 192.93 265.837 187.942C270.953 182.954 273.512 176.88 273.512 169.723C273.512 162.557 270.953 156.481 265.837 151.493C260.719 146.506 254.707 144.011 247.8 144.011C240.642 144.011 234.569 146.506 229.581 151.493C224.593 156.481 222.099 162.557 222.1 169.723C222.099 176.88 224.593 182.953 229.581 187.942C234.569 192.93 240.642 195.423 247.8 195.423V195.423Z" fill="white"/>
<path d="M318.591 200.798C315.905 198.238 312.771 196.958 309.189 196.958C305.606 196.958 302.792 197.98 300.747 200.025L267.752 233.032L227.85 193.13C224.782 190.054 220.946 188.516 216.339 188.516H153.805C149.963 188.516 146.638 190.054 143.827 193.13L100.858 242.622C97.7899 245.174 96.2549 248.37 96.2549 252.211C96.2549 255.793 97.5329 258.863 100.091 261.42C102.646 263.976 105.716 265.254 109.3 265.254C113.132 265.254 116.456 263.72 119.275 260.651L159.179 214.228L182.197 214.614L94.3349 316.666L34.8669 316.279C30.0039 316.279 25.9089 317.816 22.5839 320.888C19.2589 323.958 17.5969 327.921 17.5969 332.777C17.5969 337.382 19.2599 341.283 22.5839 344.48C25.9089 347.675 29.8759 349.275 34.4799 349.275H103.924C106.74 349.275 109.297 349.021 111.594 348.513C117.478 347.492 121.573 345.699 123.875 343.138L158.017 305.156L197.92 343.525L181.809 415.263C181.294 416.802 181.036 418.081 181.036 419.105C181.036 423.709 182.699 427.673 186.024 431C189.35 434.326 193.314 435.988 197.92 435.988C206.615 435.988 211.988 431.511 214.043 422.558L233.607 335.47C235.91 326.259 234.887 319.48 230.54 315.132L195.625 280.215L233.607 236.098L258.161 260.65C260.721 263.204 263.664 264.48 266.989 264.48C271.337 264.48 275.555 262.563 279.646 258.732L319.548 218.828C321.593 216.268 322.614 213.454 322.616 210.387C322.616 206.555 321.274 203.358 318.591 200.798V200.798Z" fill="white"/>
</g>
<defs>
<clipPath id="clip0">
<path d="M0 0H580V580H0V0Z" fill="white"/>
</clipPath>
</defs>
</svg>
